src/icons/svg/menu.svg

<svg class="icon" viewBox="0 0 1024 1024" xmlns="http://www.w3.org/2000/svg" width="240" height="240"><defs><style/></defs><path d="M768 64H192c-70.4 0-128 57.6-128 128v576c0 70.4 57.6 128 128 128h576c70.4 0 128-57.6 128-128V192c0-70.4-57.6-128-128-128zM288 704c-17.92 0-32-14.08-32-32s14.08-32 32-32 32 14.08 32 32-14.08 32-32 32zm0-192c-17.92 0-32-14.08-32-32s14.08-32 32-32 32 14.08 32 32-14.08 32-32 32zm0-192c-17.92 0-32-14.08-32-32s14.08-32 32-32 32 14.08 32 32-14.08 32-32 32zm384 384H416c-17.92 0-32-14.08-32-32s14.08-32 32-32h256c17.92 0 32 14.08 32 32s-14.08 32-32 32zm0-192H416c-17.92 0-32-14.08-32-32s14.08-32 32-32h256c17.92 0 32 14.08 32 32s-14.08 32-32 32zm0-192H416c-17.92 0-32-14.08-32-32s14.08-32 32-32h256c17.92 0 32 14.08 32 32s-14.08 32-32 32z"/></svg>

<?xml version="1.0" standalone="no"?><!DOCTYPE svg PUBLIC "-//W3C//DTD SVG 1.1//EN" "http://www.w3.org/Graphics/SVG/1.1/DTD/svg11.dtd"><svg t="1600938918747" class="icon" viewBox="0 0 1024 1024" version="1.1" xmlns="http://www.w3.org/2000/svg" p-id="13491" xmlns:xlink="http://www.w3.org/1999/xlink" width="240" height="240"><defs><style type="text/css"></style></defs><path d="M768 64 192 64C121.6 64 64 121.6 64 192l0 576c0 70.4 57.6 128 128 128l576 0c70.4 0 128-57.6 128-128L896 192C896 121.6 838.4 64 768 64zM288 704C270.08 704 256 689.92 256 672 256 654.08 270.08 640 288 640 305.92 640 320 654.08 320 672 320 689.92 305.92 704 288 704zM288 512C270.08 512 256 497.92 256 480 256 462.08 270.08 448 288 448 305.92 448 320 462.08 320 480 320 497.92 305.92 512 288 512zM288 320C270.08 320 256 305.92 256 288 256 270.08 270.08 256 288 256 305.92 256 320 270.08 320 288 320 305.92 305.92 320 288 320zM672 704l-256 0C398.08 704 384 689.92 384 672 384 654.08 398.08 640 416 640l256 0c17.92 0 32 14.08 32 32C704 689.92 689.92 704 672 704zM672 512l-256 0C398.08 512 384 497.92 384 480 384 462.08 398.08 448 416 448l256 0C689.92 448 704 462.08 704 480 704 497.92 689.92 512 672 512zM672 320l-256 0C398.08 320 384 305.92 384 288 384 270.08 398.08 256 416 256l256 0C689.92 256 704 270.08 704 288 704 305.92 689.92 320 672 320z" p-id="13492"></path></svg>
